src/img/icons/spreadsheet.svg

<svg width="32" height="32" viewBox="0 0 32 32" fill="none" xmlns="http://www.w3.org/2000/svg">
<path d="M4 25.3471V6.62936C4 5.90936 4.25805 5.29119 4.77415 4.77485C5.29025 4.25829 5.9165 4 6.65292 4H25.3706C26.0906 4 26.7088 4.25829 27.2251 4.77485C27.7417 5.29119 28 5.90936 28 6.62936V25.3355C28 26.0489 27.7417 26.6714 27.2251 27.203C26.7088 27.7343 26.0906 28 25.3706 28H6.65292C5.9165 28 5.29025 27.742 4.77415 27.2259C4.25805 26.7098 4 26.0835 4 25.3471ZM5.79931 10.703H26.2007V6.66452C26.2007 6.4121 26.1196 6.20479 25.9574 6.0426C25.7952 5.88041 25.5879 5.79931 25.3355 5.79931H6.66452C6.41209 5.79931 6.20479 5.88041 6.0426 6.0426C5.88041 6.20479 5.79931 6.4121 5.79931 6.66452V10.703ZM13.1829 18.4518H18.8171V12.5023H13.1829V18.4518ZM13.1829 26.2007H18.8171V20.2511H13.1829V26.2007ZM5.79931 18.4518H11.4187V12.5023H5.79931V18.4518ZM20.6045 18.4518H26.2007V12.5023H20.6045V18.4518ZM6.66452 26.2007H11.4187V20.2511H5.79931V25.3355C5.79931 25.5879 5.88041 25.7952 6.0426 25.9574C6.20479 26.1196 6.41209 26.2007 6.66452 26.2007ZM20.6045 26.2007H25.3355C25.5879 26.2007 25.7952 26.1196 25.9574 25.9574C26.1196 25.7952 26.2007 25.5879 26.2007 25.3355V20.2511H20.6045V26.2007Z" fill="#131212"/>
</svg>

<svg xmlns="http://www.w3.org/2000/svg" viewBox="0 0 32 32">
  <path fill="currentColor" d="M4 25.347V6.63c0-.72.258-1.338.774-1.854A2.557 2.557 0 0 1 6.653 4H25.37c.72 0 1.338.258 1.854.775A2.53 2.53 0 0 1 28 6.629v18.706c0 .714-.258 1.336-.775 1.868-.516.531-1.134.797-1.854.797H6.653a2.558 2.558 0 0 1-1.879-.774A2.558 2.558 0 0 1 4 25.347Zm1.8-14.644h20.4V6.665a.842.842 0 0 0-.243-.622.842.842 0 0 0-.622-.244H6.665a.842.842 0 0 0-.622.244.842.842 0 0 0-.244.622v4.038Zm7.383 7.749h5.634v-5.95h-5.634v5.95Zm0 7.749h5.634v-5.95h-5.634v5.95Zm-7.384-7.75h5.62v-5.949h-5.62v5.95Zm14.806 0H26.2v-5.949h-5.596v5.95Zm-13.94 7.75h4.754v-5.95h-5.62v5.084c0 .253.081.46.244.622a.84.84 0 0 0 .622.244Zm13.94 0h4.73c.253 0 .46-.081.622-.244a.842.842 0 0 0 .244-.622v-5.084h-5.596v5.95Z"/>
</svg>
